X:1
T: The Duchess of Gordon's Favourite
T:aka Loch Ericht Side
C:
R:Strathspey
Q: 128
K:C
M:4/4
L:1/16
|:G2|EG3 G2AB c3d c3B|A3G A2Bc d3e e3D|EG3 G2AB c3d e3d|cBAG c3E D4 C2G2|
EG3 G2AB c3d c3B|A3G A2Bc d3e e3D|EG3 G2AB c3d e3d|cBAG c3E D4 C2g2|
efg2 c3g agfe g3e|fa3 d3f agfg a3f|efg2 d3e c3d e3d|cBAG c3E D4 C2g2|
efg2 c3g agfe g3e|fa3 d3f agfg a3f|efg2 d3e c3d e3d|cBAG c3E D4 C2:|
